X:402
T:Tom Busby's
R:jig
Z:hn-jig-402
M:6/8
L:1/8
K:Edor
Bee B2A | Bee BAF | Bee Bee | BAF AFD |
Bee B2A | Bee def | gfe dBG | ABG AFD :|
|: ~A3 ded | BAB dBG | ~A3 ded | BAF AFD |
~A3 ded | BAB def | gfe dBG | ABG AFD :|

